; generated by Slic3r 1.2.9 on 2016-06-09 at 14:31:36

; external perimeters extrusion width = 0.63mm
; perimeters extrusion width = 0.70mm
; infill extrusion width = 0.70mm
; solid infill extrusion width = 0.70mm
; top infill extrusion width = 0.70mm

M107
M104 S55 ; set temperature
G28 ; home all axes
G91
G1 Z10 F600
G90
G1 E-2.00000 F2400.00000
G1 Z0.630000 F600.000000
G1 E-2.00000 F2400.00000
G92 E0
G1 X104.247000 Y104.114000 F7800.000000
G1 E2.00000 F2400.00000
G1 X104.497000 Y103.858000 E2.035880 F1655.653000
G1 X105.436000 Y103.089000 E2.157500
G1 X106.405000 Y102.466000 E2.273000
G1 X107.545000 Y101.898000 E2.400700
G1 X108.690000 Y101.490000 E2.522500
G1 X109.872000 Y101.215000 E2.644200
G1 X111.069000 Y101.077000 E2.765000
G1 X111.654000 Y101.061000 E2.823730 F1655.653000
G1 X112.300000 Y101.077000 E2.888400
G1 X113.498000 Y101.215000 E3.009300
G1 X114.680000 Y101.490000 E3.131000
G1 X115.823000 Y101.898000 E3.252700
G1 X116.913000 Y102.433000 E3.374400
G1 X117.934000 Y103.089000 E3.496100
G1 X118.873000 Y103.858000 E3.617800
G1 X119.719000 Y104.728000 E3.739400
G1 X120.461000 Y105.689000 E3.861100
G1 X121.087000 Y106.729000 E3.982800
G1 X121.592000 Y107.833000 E4.104500
G1 X121.967000 Y108.987000 E4.226200
G1 X122.208000 Y110.177000 E4.347900
G1 X122.312000 Y111.386000 E4.469600
G1 X122.277000 Y112.600000 E4.591200
G1 X122.104000 Y113.801000 E4.712900
G1 X121.796000 Y114.975000 E4.834600
G1 X121.365000 Y116.081000 E4.953600
G1 X120.789000 Y117.179000 E5.077900
G1 X120.104000 Y118.182000 E5.199600
G1 X119.309000 Y119.099000 E5.321300
G1 X118.415000 Y119.920000 E5.443000
G1 X117.401000 Y120.656000 E5.568600
G1 X116.374000 Y121.231000 E5.686500
G1 X115.314000 Y121.679000 E5.801900
G1 X114.095000 Y122.044000 E5.929600
G1 X112.897000 Y122.252000 E6.051400
G1 X111.685000 Y122.321000 E6.173100
G1 X110.473000 Y122.252000 E6.294800
G1 X109.277000 Y122.045000 E6.416500
G1 X108.112000 Y121.703000 E6.538200
G1 X106.994000 Y121.230000 E6.659900
G1 X105.937000 Y120.633000 E6.781600
G1 X104.955000 Y119.920000 E6.903200
G1 X104.061000 Y119.099000 E7.024900
G1 X103.266000 Y118.182000 E7.146600
G1 X102.581000 Y117.180000 E7.268300
G1 X102.015000 Y116.106000 E7.390000
G1 X101.574000 Y114.975000 E7.511700
G1 X101.266000 Y113.801000 E7.633400
G1 X101.102000 Y112.661000 E7.748900
G1 X101.058000 Y111.388000 E7.876500
G1 X101.162000 Y110.177000 E7.998400
G1 X101.403000 Y108.987000 E8.120100
G1 X101.778000 Y107.833000 E8.241700
G1 X102.257000 Y106.785000 E8.357200
G1 X102.908000 Y105.691000 E8.484900
G1 X103.651000 Y104.728000 E8.606800
G1 X104.181000 Y104.182000 E8.683100
G1 X104.150000 Y103.770000 F7800.000000
G1 X103.726000 Y103.593000 F7800.000000
G1 X104.078000 Y103.241000 E8.733030 F1655.653000
G1 X105.002000 Y102.492000 E8.852300
G1 X106.000000 Y101.844000 E8.971600
G1 X107.061000 Y101.304000 E9.090900
G1 X108.172000 Y100.877000 E9.210200
G1 X109.321000 Y100.569000 E9.329500
G1 X110.497000 Y100.383000 E9.448800
G1 X111.685000 Y100.321000 E9.568100
G1 X112.809000 Y100.380000 E9.680900
G1 X114.050000 Y100.570000 E9.806860 F1655.653000
G1 X115.198000 Y100.877000 E9.926000
G1 X116.309000 Y101.304000 E10.045300
G1 X117.370000 Y101.844000 E10.164600
G1 X118.368000 Y102.492000 E10.283900
G1 X119.292000 Y103.241000 E10.403200
G1 X120.134000 Y104.083000 E10.522500
G1 X120.883000 Y105.007000 E10.641800
G1 X121.531000 Y106.005000 E10.761100
G1 X122.071000 Y107.066000 E10.880400
G1 X122.498000 Y108.177000 E10.999700
G1 X122.806000 Y109.326000 E11.119000
G1 X122.992000 Y110.502000 E11.238300
G1 X123.054000 Y111.690000 E11.357600
G1 X122.992000 Y112.878000 E11.476900
G1 X122.806000 Y114.054000 E11.596200
G1 X122.498000 Y115.203000 E11.715500
G1 X122.071000 Y116.314000 E11.834800
G1 X121.560000 Y117.317000 E11.947600
G1 X120.882000 Y118.374000 E12.073500
G1 X120.134000 Y119.297000 E12.192600
G1 X119.292000 Y120.139000 E12.311900
G1 X118.368000 Y120.888000 E12.431200
G1 X117.370000 Y121.536000 E12.550500
G1 X116.309000 Y122.076000 E12.669800
G1 X115.198000 Y122.503000 E12.789100
G1 X114.049000 Y122.811000 E12.908400
G1 X112.873000 Y122.997000 E13.027700
G1 X111.685000 Y123.059000 E13.147000
G1 X110.497000 Y122.997000 E13.266300
G1 X109.321000 Y122.811000 E13.385600
G1 X108.172000 Y122.503000 E13.504900
G1 X107.061000 Y122.076000 E13.624200
G1 X106.000000 Y121.536000 E13.743500
G1 X105.002000 Y120.888000 E13.862800
G1 X104.078000 Y120.139000 E13.982100
G1 X103.236000 Y119.297000 E14.101400
G1 X102.528000 Y118.423000 E14.214300
G1 X101.838000 Y117.373000 E14.340200
G1 X101.299000 Y116.314000 E14.459300
G1 X100.872000 Y115.203000 E14.578600
G1 X100.564000 Y114.054000 E14.697900
G1 X100.378000 Y112.878000 E14.817200
G1 X100.316000 Y111.690000 E14.936500
G1 X100.378000 Y110.502000 E15.055800
G1 X100.564000 Y109.326000 E15.175100
G1 X100.872000 Y108.177000 E15.294400
G1 X101.299000 Y107.066000 E15.413700
G1 X101.839000 Y106.005000 E15.533000
G1 X102.487000 Y105.007000 E15.652300
G1 X103.236000 Y104.083000 E15.771600
G1 X103.659000 Y103.660000 E15.831500
G1 X104.206000 Y103.722000 F7800.000000
M104 S50 ; set temperature
G91
G1 Z10 F600
G90
G1 E-2.00000 F2400.00000
G1 Z0.630000 F600.000000
G1 E-2.00000 F2400.00000
G92 E0
G1 X14.247000 Y14.114000 F7800.000000
G1 E2.00000 F2400.00000
G1 X14.497000 Y13.858000 E2.035880 F1655.653000
G1 X15.436000 Y13.089000 E2.157500
G1 X16.405000 Y12.466000 E2.273000
G1 X17.545000 Y11.898000 E2.400700
G1 X18.690000 Y11.490000 E2.522500
G1 X19.872000 Y11.215000 E2.644200
G1 X21.069000 Y11.077000 E2.765000
G1 X21.654000 Y11.061000 E2.823730 F1655.653000
G1 X22.300000 Y11.077000 E2.888400
G1 X23.498000 Y11.215000 E3.009300
G1 X24.680000 Y11.490000 E3.131000
G1 X25.823000 Y11.898000 E3.252700
G1 X26.913000 Y12.433000 E3.374400
G1 X27.934000 Y13.089000 E3.496100
G1 X28.873000 Y13.858000 E3.617800
G1 X29.719000 Y14.728000 E3.739400
G1 X30.461000 Y15.689000 E3.861100
G1 X31.087000 Y16.729000 E3.982800
G1 X31.592000 Y17.833000 E4.104500
G1 X31.967000 Y18.987000 E4.226200
G1 X32.208000 Y20.177000 E4.347900
G1 X32.312000 Y21.386000 E4.469600
G1 X32.277000 Y22.600000 E4.591200
G1 X32.104000 Y23.801000 E4.712900
G1 X31.796000 Y24.975000 E4.834600
G1 X31.365000 Y26.081000 E4.953600
G1 X30.789000 Y27.179000 E5.077900
G1 X30.104000 Y28.182000 E5.199600
G1 X29.309000 Y29.099000 E5.321300
G1 X28.415000 Y29.920000 E5.443000
G1 X27.401000 Y30.656000 E5.568600
G1 X26.374000 Y31.231000 E5.686500
G1 X25.314000 Y31.679000 E5.801900
G1 X24.095000 Y32.044000 E5.929600
G1 X22.897000 Y32.252000 E6.051400
G1 X21.685000 Y32.321000 E6.173100
G1 X20.473000 Y32.252000 E6.294800
G1 X19.277000 Y32.045000 E6.416500
G1 X18.112000 Y31.703000 E6.538200
G1 X16.994000 Y31.230000 E6.659900
G1 X15.937000 Y30.633000 E6.781600
G1 X14.955000 Y29.920000 E6.903200
G1 X14.061000 Y29.099000 E7.024900
G1 X13.266000 Y28.182000 E7.146600
G1 X12.581000 Y27.180000 E7.268300
G1 X12.015000 Y26.106000 E7.390000
G1 X11.574000 Y24.975000 E7.511700
G1 X11.266000 Y23.801000 E7.633400
G1 X11.102000 Y22.661000 E7.748900
G1 X11.058000 Y21.388000 E7.876500
G1 X11.162000 Y20.177000 E7.998400
G1 X11.403000 Y18.987000 E8.120100
G1 X11.778000 Y17.833000 E8.241700
G1 X12.257000 Y16.785000 E8.357200
G1 X12.908000 Y15.691000 E8.484900
G1 X13.651000 Y14.728000 E8.606800
G1 X14.181000 Y14.182000 E8.683100
G1 X14.150000 Y13.770000 F7800.000000
G1 X13.726000 Y13.593000 F7800.000000
G1 X14.078000 Y13.241000 E8.733030 F1655.653000
G1 X15.002000 Y12.492000 E8.852300
G1 X16.000000 Y11.844000 E8.971600
G1 X17.061000 Y11.304000 E9.090900
G1 X18.172000 Y10.877000 E9.210200
G1 X19.321000 Y10.569000 E9.329500
G1 X20.497000 Y10.383000 E9.448800
G1 X21.685000 Y10.321000 E9.568100
G1 X22.809000 Y10.380000 E9.680900
G1 X24.050000 Y10.570000 E9.806860 F1655.653000
G1 X25.198000 Y10.877000 E9.926000
G1 X26.309000 Y11.304000 E10.045300
G1 X27.370000 Y11.844000 E10.164600
G1 X28.368000 Y12.492000 E10.283900
G1 X29.292000 Y13.241000 E10.403200
G1 X30.134000 Y14.083000 E10.522500
G1 X30.883000 Y15.007000 E10.641800
G1 X31.531000 Y16.005000 E10.761100
G1 X32.071000 Y17.066000 E10.880400
G1 X32.498000 Y18.177000 E10.999700
G1 X32.806000 Y19.326000 E11.119000
G1 X32.992000 Y20.502000 E11.238300
G1 X33.054000 Y21.690000 E11.357600
G1 X32.992000 Y22.878000 E11.476900
G1 X32.806000 Y24.054000 E11.596200
G1 X32.498000 Y25.203000 E11.715500
G1 X32.071000 Y26.314000 E11.834800
G1 X31.560000 Y27.317000 E11.947600
G1 X30.882000 Y28.374000 E12.073500
G1 X30.134000 Y29.297000 E12.192600
G1 X29.292000 Y30.139000 E12.311900
G1 X28.368000 Y30.888000 E12.431200
G1 X27.370000 Y31.536000 E12.550500
G1 X26.309000 Y32.076000 E12.669800
G1 X25.198000 Y32.503000 E12.789100
G1 X24.049000 Y32.811000 E12.908400
G1 X22.873000 Y32.997000 E13.027700
G1 X21.685000 Y33.059000 E13.147000
G1 X20.497000 Y32.997000 E13.266300
G1 X19.321000 Y32.811000 E13.385600
G1 X18.172000 Y32.503000 E13.504900
G1 X17.061000 Y32.076000 E13.624200
G1 X16.000000 Y31.536000 E13.743500
G1 X15.002000 Y30.888000 E13.862800
G1 X14.078000 Y30.139000 E13.982100
G1 X13.236000 Y29.297000 E14.101400
G1 X12.528000 Y28.423000 E14.214300
G1 X11.838000 Y27.373000 E14.340200
G1 X11.299000 Y26.314000 E14.459300
G1 X10.872000 Y25.203000 E14.578600
G1 X10.564000 Y24.054000 E14.697900
G1 X10.378000 Y22.878000 E14.817200
G1 X10.316000 Y21.690000 E14.936500
G1 X10.378000 Y20.502000 E15.055800
G1 X10.564000 Y19.326000 E15.175100
G1 X10.872000 Y18.177000 E15.294400
G1 X11.299000 Y17.066000 E15.413700
G1 X11.839000 Y16.005000 E15.533000
G1 X12.487000 Y15.007000 E15.652300
G1 X13.236000 Y14.083000 E15.771600
G1 X13.659000 Y13.660000 E15.831500
G1 X14.206000 Y13.722000 F7800.000000
M104 S50 ; set temperature
G91
G1 Z10 F600
G90
G1 X104.480000 Y104.326000 F7800.000000
G1 Z1.160000 F600.000000
G1 X104.480000 Y104.326000 F7800.000000
G1 X104.710000 Y104.090000 E15.844330 F360.000000
G1 X105.622000 Y103.345000 E15.889900
G1 X106.613000 Y102.708000 E15.935500
G1 X107.669000 Y102.188000 E15.981100
G1 X108.779000 Y101.792000 E16.026700
G1 X109.926000 Y101.526000 E16.072200
G1 X111.092000 Y101.392000 E16.117700
G1 X111.599000 Y101.377000 E16.137340 F360.000000
G1 X112.277000 Y101.392000 E16.163600
G1 X113.444000 Y101.526000 E16.209000
G1 X114.591000 Y101.792000 E16.254600
G1 X115.701000 Y102.188000 E16.300200
G1 X116.757000 Y102.708000 E16.345800
G1 X117.748000 Y103.345000 E16.391400
G1 X118.660000 Y104.090000 E16.437000
G1 X119.481000 Y104.935000 E16.482600
G1 X120.200000 Y105.867000 E16.528200
G1 X120.808000 Y106.876000 E16.573800
G1 X121.298000 Y107.947000 E16.619400
G1 X121.662000 Y109.068000 E16.664900
G1 X121.896000 Y110.222000 E16.710500
G1 X121.996000 Y111.395000 E16.756100
G1 X121.963000 Y112.573000 E16.801700
G1 X121.795000 Y113.739000 E16.847300
G1 X121.496000 Y114.878000 E16.892900
G1 X121.068000 Y115.975000 E16.938500
G1 X120.519000 Y117.017000 E16.984100
G1 X119.854000 Y117.989000 E17.029700
G1 X119.083000 Y118.879000 E17.075300
G1 X118.215000 Y119.676000 E17.120900
G1 X117.262000 Y120.368000 E17.166500
G1 X116.236000 Y120.947000 E17.212000
G1 X115.152000 Y121.406000 E17.257600
G1 X114.021000 Y121.737000 E17.303200
G1 X112.861000 Y121.938000 E17.348800
G1 X111.685000 Y122.006000 E17.394400
G1 X110.509000 Y121.938000 E17.440000
G1 X109.349000 Y121.737000 E17.485600
G1 X108.218000 Y121.406000 E17.531200
G1 X107.134000 Y120.947000 E17.576800
G1 X106.108000 Y120.368000 E17.622400
G1 X105.155000 Y119.676000 E17.668000
G1 X104.287000 Y118.879000 E17.713600
G1 X103.516000 Y117.989000 E17.759100
G1 X102.851000 Y117.017000 E17.804700
G1 X102.302000 Y115.975000 E17.850300
G1 X101.874000 Y114.878000 E17.895900
G1 X101.575000 Y113.739000 E17.941500
G1 X101.434000 Y112.759000 E17.979800
G1 X101.407000 Y112.573000 E17.987100
G1 X101.374000 Y111.395000 E18.032700
G1 X101.474000 Y110.222000 E18.078300
G1 X101.708000 Y109.068000 E18.123900
G1 X102.072000 Y107.947000 E18.169500
G1 X102.562000 Y106.876000 E18.215100
G1 X103.170000 Y105.867000 E18.260700
G1 X103.889000 Y104.935000 E18.306200
G1 X104.414000 Y104.394000 E18.335400
G1 X104.391000 Y104.009000 F7800.000000
G1 X103.514000 Y103.360000 F7800.000000
G1 X103.866000 Y103.007000 E18.354790 F360.000000
G1 X104.817000 Y102.237000 E18.402100
G1 X105.843000 Y101.571000 E18.449400
G1 X106.932000 Y101.016000 E18.496800
G1 X108.074000 Y100.577000 E18.544100
G1 X109.256000 Y100.261000 E18.591500
G1 X110.464000 Y100.069000 E18.638800
G1 X111.685000 Y100.005000 E18.686100
G1 X112.736000 Y100.060000 E18.726900
G1 X112.906000 Y100.069000 E18.733540 F360.000000
G1 X114.114000 Y100.261000 E18.780800
G1 X115.296000 Y100.577000 E18.828200
G1 X116.438000 Y101.016000 E18.875500
G1 X117.527000 Y101.571000 E18.922900
G1 X118.553000 Y102.237000 E18.970200
G1 X119.504000 Y103.007000 E19.017500
G1 X120.368000 Y103.871000 E19.064900
G1 X121.138000 Y104.822000 E19.112200
G1 X121.804000 Y105.848000 E19.159600
G1 X122.359000 Y106.937000 E19.206900
G1 X122.798000 Y108.079000 E19.254300
G1 X123.114000 Y109.261000 E19.301600
G1 X123.306000 Y110.469000 E19.348900
G1 X123.370000 Y111.690000 E19.396300
G1 X123.306000 Y112.911000 E19.443600
G1 X123.114000 Y114.119000 E19.491000
G1 X122.798000 Y115.301000 E19.538300
G1 X122.359000 Y116.443000 E19.585700
G1 X121.804000 Y117.532000 E19.633000
G1 X121.138000 Y118.558000 E19.680400
G1 X120.368000 Y119.509000 E19.727700
G1 X119.504000 Y120.373000 E19.775000
G1 X118.553000 Y121.143000 E19.822400
G1 X117.527000 Y121.809000 E19.869700
G1 X116.438000 Y122.364000 E19.917100
G1 X115.296000 Y122.803000 E19.964400
G1 X114.114000 Y123.119000 E20.011800
G1 X112.906000 Y123.311000 E20.059100
G1 X111.685000 Y123.375000 E20.106400
G1 X110.464000 Y123.311000 E20.153800
G1 X109.256000 Y123.119000 E20.201100
G1 X108.074000 Y122.803000 E20.248500
G1 X106.932000 Y122.364000 E20.295800
G1 X105.843000 Y121.809000 E20.343200
G1 X104.817000 Y121.143000 E20.390500
G1 X103.866000 Y120.373000 E20.437800
G1 X103.002000 Y119.509000 E20.485200
G1 X102.232000 Y118.558000 E20.532500
G1 X101.566000 Y117.532000 E20.579900
G1 X101.011000 Y116.443000 E20.627200
G1 X100.572000 Y115.301000 E20.674600
G1 X100.256000 Y114.119000 E20.721900
G1 X100.064000 Y112.911000 E20.769200
G1 X100.000000 Y111.690000 E20.816600
G1 X100.064000 Y110.469000 E20.863900
G1 X100.256000 Y109.261000 E20.911300
G1 X100.572000 Y108.079000 E20.958600
G1 X101.011000 Y106.937000 E21.006000
G1 X101.566000 Y105.848000 E21.053300
G1 X102.232000 Y104.822000 E21.100600
G1 X103.002000 Y103.871000 E21.148000
G1 X103.447000 Y103.426000 E21.172300
G1 X103.996000 Y103.489000 F7800.000000
G1 X104.000000 Y103.839000 F7800.000000
G1 X104.326000 Y103.517000 E21.216720 F3600.000000
G1 X105.219000 Y102.791000 E21.328000
G1 X106.186000 Y102.166000 E21.439400
G1 X107.213000 Y101.645000 E21.550700
G1 X108.288000 Y101.235000 E21.662000
G1 X108.610000 Y101.136000 E21.694600
G1 X109.400000 Y100.938000 E21.773400
G1 X109.833000 Y100.855000 E21.816100
G1 X110.536000 Y100.759000 E21.884700
G1 X111.026000 Y100.718000 E21.932300
G1 X111.685000 Y100.693000 E21.996000
G1 X112.304000 Y100.715000 E22.056000
G1 X112.834000 Y100.759000 E22.107400
G1 X113.537000 Y100.855000 E22.176000
G1 X113.970000 Y100.938000 E22.218700
G1 X114.804000 Y101.148000 E22.301900
G1 X115.082000 Y101.235000 E22.330000
G1 X116.157000 Y101.645000 E22.441400
G1 X117.184000 Y102.166000 E22.552700
G1 X118.151000 Y102.791000 E22.664000
G1 X119.044000 Y103.517000 E22.775400
G1 X119.856000 Y104.333000 E22.886700
G1 X120.579000 Y105.228000 E22.998100
G1 X120.747000 Y105.466000 E23.026200
G1 X121.204000 Y106.194000 E23.109400
G1 X121.418000 Y106.580000 E23.152100
G1 X121.726000 Y107.219000 E23.220700
G1 X121.936000 Y107.723000 E23.273500
G1 X122.138000 Y108.294000 E23.332000
G1 X122.310000 Y108.874000 E23.390500
G1 X122.436000 Y109.405000 E23.443400
G1 X122.562000 Y110.103000 E23.512000
G1 X122.617000 Y110.541000 E23.554700
G1 X122.673000 Y111.353000 E23.633400
G1 X122.678000 Y111.690000 E23.666000
G1 X122.638000 Y112.654000 E23.759300
G1 X122.442000 Y113.976000 E23.888700
G1 X122.146000 Y115.089000 E24.000000
