; generated by Slic3r 1.2.9 on 2016-06-09 at 14:31:36

; external perimeters extrusion width = 0.63mm
; perimeters extrusion width = 0.70mm
; infill extrusion width = 0.70mm
; solid infill extrusion width = 0.70mm
; top infill extrusion width = 0.70mm

M107
M104 S55 ; set temperature
G28 ; home all axes
G1 Z5 F5000 ; lift nozzle

M109 S55 ; wait for temperature to be reached
G21 ; set units to millimeters
G90 ; use absolute coordinates
M82 ; use absolute distances for extrusion
G92 E0
G1 Z0.630 F7800.000
G1 E-2.00000 F2400.00000
G92 E0
G1 X7.732 Y7.514 F7800.000
G1 E2.00000 F2400.00000
G1 X7.982 Y7.258 E2.03588 F1655.653
G1 X8.921 Y6.489 E2.15757
G1 X9.890 Y5.866 E2.27306
G1 X11.030 Y5.298 E2.40072
G1 X12.175 Y4.890 E2.52259
G1 X13.357 Y4.615 E2.64427
G1 X14.554 Y4.477 E2.76506
G1 X15.139 Y4.461 E2.82373 F1655.653
G1 X15.785 Y4.477 E2.88849
G1 X16.983 Y4.615 E3.00937
G1 X18.165 Y4.890 E3.13105
G1 X19.308 Y5.298 E3.25274
G1 X20.398 Y5.833 E3.37442
G1 X21.419 Y6.489 E3.49611
G1 X22.358 Y7.258 E3.61780
G1 X23.204 Y8.128 E3.73948
G1 X23.946 Y9.089 E3.86117
G1 X24.572 Y10.129 E3.98285
G1 X25.077 Y11.233 E4.10454
G1 X25.452 Y12.387 E4.22622
G1 X25.693 Y13.577 E4.34791
G1 X25.797 Y14.786 E4.46960
G1 X25.762 Y16.000 E4.59128
G1 X25.589 Y17.201 E4.71297
G1 X25.281 Y18.375 E4.83465
G1 X24.850 Y19.481 E4.95367
G1 X24.274 Y20.579 E5.07793
G1 X23.589 Y21.582 E5.19969
G1 X22.794 Y22.499 E5.32138
G1 X21.900 Y23.320 E5.44307
G1 X20.886 Y24.056 E5.56868
G1 X19.859 Y24.631 E5.68659
G1 X18.799 Y25.079 E5.80196
G1 X17.580 Y25.444 E5.92962
G1 X16.382 Y25.652 E6.05148
G1 X15.170 Y25.721 E6.17317
G1 X13.958 Y25.652 E6.29486
G1 X12.762 Y25.445 E6.41654
G1 X11.597 Y25.103 E6.53823
G1 X10.479 Y24.630 E6.65991
G1 X9.422 Y24.033 E6.78160
G1 X8.440 Y23.320 E6.90329
G1 X7.546 Y22.499 E7.02497
G1 X6.751 Y21.582 E7.14666
G1 X6.066 Y20.580 E7.26834
G1 X5.500 Y19.506 E7.39003
G1 X5.059 Y18.375 E7.51171
G1 X4.751 Y17.201 E7.63340
G1 X4.587 Y16.061 E7.74890
G1 X4.543 Y14.788 E7.87655
G1 X4.647 Y13.577 E7.99842
G1 X4.888 Y12.387 E8.12011
G1 X5.263 Y11.233 E8.24179
G1 X5.742 Y10.185 E8.35729
G1 X6.393 Y9.091 E8.48495
G1 X7.136 Y8.128 E8.60681
G1 X7.666 Y7.582 E8.68314
G1 X7.635 Y7.170 F7800.000
G1 X7.211 Y6.993 F7800.000
G1 X7.563 Y6.641 E8.73303 F1655.653
G1 X8.487 Y5.892 E8.85233
G1 X9.485 Y5.244 E8.97163
G1 X10.546 Y4.704 E9.09093
G1 X11.657 Y4.277 E9.21023
G1 X12.806 Y3.969 E9.32953
G1 X13.982 Y3.783 E9.44883
G1 X15.170 Y3.721 E9.56813
G1 X16.294 Y3.780 E9.68098
G1 X17.535 Y3.970 E9.80686 F1655.653
G1 X18.683 Y4.277 E9.92600
G1 X19.794 Y4.704 E10.04530
G1 X20.855 Y5.244 E10.16460
G1 X21.853 Y5.892 E10.28390
G1 X22.777 Y6.641 E10.40320
G1 X23.619 Y7.483 E10.52250
G1 X24.368 Y8.407 E10.64180
G1 X25.016 Y9.405 E10.76110
G1 X25.556 Y10.466 E10.88040
G1 X25.983 Y11.577 E10.99970
G1 X26.291 Y12.726 E11.11900
G1 X26.477 Y13.902 E11.23830
G1 X26.539 Y15.090 E11.35760
G1 X26.477 Y16.278 E11.47690
G1 X26.291 Y17.454 E11.59620
G1 X25.983 Y18.603 E11.71550
G1 X25.556 Y19.714 E11.83480
G1 X25.045 Y20.717 E11.94766
G1 X24.367 Y21.774 E12.07353
G1 X23.619 Y22.697 E12.19267
G1 X22.777 Y23.539 E12.31197
G1 X21.853 Y24.288 E12.43127
G1 X20.855 Y24.936 E12.55057
G1 X19.794 Y25.476 E12.66987
G1 X18.683 Y25.903 E12.78917
G1 X17.534 Y26.211 E12.90847
G1 X16.358 Y26.397 E13.02777
G1 X15.170 Y26.459 E13.14707
G1 X13.982 Y26.397 E13.26637
G1 X12.806 Y26.211 E13.38567
G1 X11.657 Y25.903 E13.50497
G1 X10.546 Y25.476 E13.62427
G1 X9.485 Y24.936 E13.74357
G1 X8.487 Y24.288 E13.86287
G1 X7.563 Y23.539 E13.98217
G1 X6.721 Y22.697 E14.10147
G1 X6.013 Y21.823 E14.21433
G1 X5.323 Y20.773 E14.34020
G1 X4.784 Y19.714 E14.45934
G1 X4.357 Y18.603 E14.57864
G1 X4.049 Y17.454 E14.69794
G1 X3.863 Y16.278 E14.81724
G1 X3.801 Y15.090 E14.93654
G1 X3.863 Y13.902 E15.05584
G1 X4.049 Y12.726 E15.17514
G1 X4.357 Y11.577 E15.29444
G1 X4.784 Y10.466 E15.41374
G1 X5.324 Y9.405 E15.53304
G1 X5.972 Y8.407 E15.65234
G1 X6.721 Y7.483 E15.77164
G1 X7.144 Y7.060 E15.83158
G1 X7.691 Y7.122 F7800.000
M104 S50 ; set temperature
G1 Z1.160 F7800.000
G1 X7.965 Y7.726 F7800.000
G1 X8.195 Y7.490 E15.84433 F360.000
G1 X9.107 Y6.745 E15.88992
G1 X10.098 Y6.108 E15.93552
G1 X11.154 Y5.588 E15.98111
G1 X12.264 Y5.192 E16.02670
G1 X13.411 Y4.926 E16.07229
G1 X14.577 Y4.792 E16.11771
G1 X15.084 Y4.777 E16.13734 F360.000
G1 X15.762 Y4.792 E16.16361
G1 X16.929 Y4.926 E16.20908
G1 X18.076 Y5.192 E16.25467
G1 X19.186 Y5.588 E16.30026
G1 X20.242 Y6.108 E16.34585
G1 X21.233 Y6.745 E16.39144
G1 X22.145 Y7.490 E16.43703
G1 X22.966 Y8.335 E16.48263
G1 X23.685 Y9.267 E16.52822
G1 X24.293 Y10.276 E16.57381
G1 X24.783 Y11.347 E16.61940
G1 X25.147 Y12.468 E16.66499
G1 X25.381 Y13.622 E16.71058
G1 X25.481 Y14.795 E16.75618
G1 X25.448 Y15.973 E16.80177
G1 X25.280 Y17.139 E16.84736
G1 X24.981 Y18.278 E16.89295
G1 X24.553 Y19.375 E16.93854
G1 X24.004 Y20.417 E16.98413
G1 X23.339 Y21.389 E17.02972
G1 X22.568 Y22.279 E17.07532
G1 X21.700 Y23.076 E17.12091
G1 X20.747 Y23.768 E17.16650
G1 X19.721 Y24.347 E17.21209
G1 X18.637 Y24.806 E17.25768
G1 X17.506 Y25.137 E17.30327
G1 X16.346 Y25.338 E17.34887
G1 X15.170 Y25.406 E17.39446
G1 X13.994 Y25.338 E17.44005
G1 X12.834 Y25.137 E17.48564
G1 X11.703 Y24.806 E17.53123
G1 X10.619 Y24.347 E17.57682
G1 X9.593 Y23.768 E17.62242
G1 X8.640 Y23.076 E17.66801
G1 X7.772 Y22.279 E17.71360
G1 X7.001 Y21.389 E17.75919
G1 X6.336 Y20.417 E17.80478
G1 X5.787 Y19.375 E17.85037
G1 X5.359 Y18.278 E17.89597
G1 X5.060 Y17.139 E17.94156
G1 X4.919 Y16.159 E17.97986
G1 X4.892 Y15.973 E17.98715
G1 X4.859 Y14.795 E18.03274
G1 X4.959 Y13.622 E18.07833
G1 X5.193 Y12.468 E18.12392
G1 X5.557 Y11.347 E18.16951
G1 X6.047 Y10.276 E18.21511
G1 X6.655 Y9.267 E18.26070
G1 X7.374 Y8.335 E18.30629
G1 X7.899 Y7.794 E18.33547
G1 X7.876 Y7.409 F7800.000
G1 X6.999 Y6.760 F7800.000
G1 X7.351 Y6.407 E18.35479 F360.000
G1 X8.302 Y5.637 E18.40214
G1 X9.328 Y4.971 E18.44948
G1 X10.417 Y4.416 E18.49682
G1 X11.559 Y3.977 E18.54416
G1 X12.741 Y3.661 E18.59151
G1 X13.949 Y3.469 E18.63885
G1 X15.170 Y3.405 E18.68619
G1 X16.221 Y3.460 E18.72692
G1 X16.391 Y3.469 E18.73354 F360.000
G1 X17.599 Y3.661 E18.78088
G1 X18.781 Y3.977 E18.82822
G1 X19.923 Y4.416 E18.87556
G1 X21.012 Y4.971 E18.92291
G1 X22.038 Y5.637 E18.97025
G1 X22.989 Y6.407 E19.01759
G1 X23.853 Y7.271 E19.06494
G1 X24.623 Y8.222 E19.11228
G1 X25.289 Y9.248 E19.15962
G1 X25.844 Y10.337 E19.20697
G1 X26.283 Y11.479 E19.25431
G1 X26.599 Y12.661 E19.30165
G1 X26.791 Y13.869 E19.34899
G1 X26.855 Y15.090 E19.39634
G1 X26.791 Y16.311 E19.44368
G1 X26.599 Y17.519 E19.49102
G1 X26.283 Y18.701 E19.53837
G1 X25.844 Y19.843 E19.58571
G1 X25.289 Y20.932 E19.63305
G1 X24.623 Y21.958 E19.68040
G1 X23.853 Y22.909 E19.72774
G1 X22.989 Y23.773 E19.77508
G1 X22.038 Y24.543 E19.82242
G1 X21.012 Y25.209 E19.86977
G1 X19.923 Y25.764 E19.91711
G1 X18.781 Y26.203 E19.96445
G1 X17.599 Y26.519 E20.01180
G1 X16.391 Y26.711 E20.05914
G1 X15.170 Y26.775 E20.10648
G1 X13.949 Y26.711 E20.15383
G1 X12.741 Y26.519 E20.20117
G1 X11.559 Y26.203 E20.24851
G1 X10.417 Y25.764 E20.29585
G1 X9.328 Y25.209 E20.34320
G1 X8.302 Y24.543 E20.39054
G1 X7.351 Y23.773 E20.43788
G1 X6.487 Y22.909 E20.48523
G1 X5.717 Y21.958 E20.53257
G1 X5.051 Y20.932 E20.57991
G1 X4.496 Y19.843 E20.62726
G1 X4.057 Y18.701 E20.67460
G1 X3.741 Y17.519 E20.72194
G1 X3.549 Y16.311 E20.76928
G1 X3.485 Y15.090 E20.81663
G1 X3.549 Y13.869 E20.86397
G1 X3.741 Y12.661 E20.91131
G1 X4.057 Y11.479 E20.95866
G1 X4.496 Y10.337 E21.00600
G1 X5.051 Y9.248 E21.05334
G1 X5.717 Y8.222 E21.10069
G1 X6.487 Y7.271 E21.14803
G1 X6.932 Y6.826 E21.17239
G1 X7.481 Y6.889 F7800.000
G1 X7.485 Y7.239 F7800.000
G1 X7.811 Y6.917 E21.21672 F3600.000
G1 X8.704 Y6.191 E21.32808
G1 X9.671 Y5.566 E21.43944
G1 X10.698 Y5.045 E21.55077
G1 X11.773 Y4.635 E21.66208
G1 X12.095 Y4.536 E21.69467
G1 X12.885 Y4.338 E21.77341
G1 X13.318 Y4.255 E21.81611
G1 X14.021 Y4.159 E21.88474
G1 X14.511 Y4.118 E21.93232
G1 X15.170 Y4.093 E21.99609
G1 X15.789 Y4.115 E22.05604
G1 X16.319 Y4.159 E22.10743
G1 X17.022 Y4.255 E22.17606
G1 X17.455 Y4.338 E22.21876
G1 X18.289 Y4.548 E22.30194
G1 X18.567 Y4.635 E22.33009
G1 X19.642 Y5.045 E22.44140
G1 X20.669 Y5.566 E22.55274
G1 X21.636 Y6.191 E22.66409
G1 X22.529 Y6.917 E22.77545
G1 X23.341 Y7.733 E22.88679
G1 X24.064 Y8.628 E22.99810
G1 X24.232 Y8.866 E23.02625
G1 X24.689 Y9.594 E23.10943
G1 X24.903 Y9.980 E23.15213
G1 X25.211 Y10.619 E23.22076
G1 X25.421 Y11.123 E23.27357
G1 X25.623 Y11.694 E23.33208
G1 X25.795 Y12.274 E23.39059
G1 X25.921 Y12.805 E23.44341
G1 X26.047 Y13.503 E23.51204
G1 X26.102 Y13.941 E23.55474
G1 X26.158 Y14.753 E23.63348
G1 X26.163 Y15.090 E23.66607
G1 X26.123 Y16.054 E23.75939
G1 X25.927 Y17.376 E23.88871
G1 X25.631 Y18.489 E24.00007
G1 X25.217 Y19.563 E24.11143
G1 X24.692 Y20.588 E24.22276
G1 X24.064 Y21.552 E24.33408
G1 X23.862 Y21.821 E24.36666
G1 X23.339 Y22.445 E24.44541
G1 X23.069 Y22.735 E24.48368
G1 X22.525 Y23.258 E24.55673
G1 X22.110 Y23.614 E24.60955
G1 X21.630 Y23.982 E24.66806
G1 X21.132 Y24.325 E24.72657
G1 X20.666 Y24.609 E24.77938
G1 X20.000 Y24.965 E24.85244
G1 X19.641 Y25.132 E24.89071
G1 X18.886 Y25.436 E24.96946
G1 X18.567 Y25.545 E25.00204
G1 X17.456 Y25.845 E25.11336
G1 X16.401 Y26.018 E25.21682
G1 X15.170 Y26.090 E25.33605
G1 X14.020 Y26.027 E25.44741
G1 X12.702 Y25.805 E25.57674
G1 X11.773 Y25.545 E25.67005
G1 X11.454 Y25.436 E25.70264
G1 X10.699 Y25.132 E25.78139
G1 X10.299 Y24.944 E25.82409
G1 X9.674 Y24.609 E25.89271
G1 X9.246 Y24.349 E25.94110
G1 X8.710 Y23.982 E26.00404
G1 X8.230 Y23.614 E26.06255
G1 X7.815 Y23.258 E26.11536
G1 X7.303 Y22.767 E26.18399
G1 X7.001 Y22.445 E26.22669
G1 X6.450 Y21.785 E26.30987
G1 X6.276 Y21.552 E26.33802
G1 X5.648 Y20.588 E26.44934
G1 X5.123 Y19.563 E26.56067
G1 X4.709 Y18.489 E26.67203
G1 X4.413 Y17.376 E26.78338
G1 X4.235 Y16.239 E26.89472
G1 X4.177 Y15.090 E27.00603
G1 X4.182 Y14.753 E27.03862
G1 X4.238 Y13.941 E27.11736 F3600.000
G1 X4.293 Y13.503 E27.16006
G1 X4.419 Y12.805 E27.22869
G1 X4.545 Y12.274 E27.28151
G1 X4.717 Y11.694 E27.34002
G1 X4.919 Y11.123 E27.39853
G1 X5.129 Y10.619 E27.45134
G1 X5.437 Y9.980 E27.51997
G1 X5.651 Y9.594 E27.56267
G1 X6.108 Y8.866 E27.64585
G1 X6.875 Y7.872 E27.76729
G1 X7.419 Y7.307 E27.84316
G1 Z1.690 F7800.000
G1 X7.976 Y7.716 F7800.000
G1 X8.195 Y7.490 E27.85534 F360.000
G1 X9.107 Y6.745 E27.90093
G1 X10.098 Y6.108 E27.94652
G1 X11.154 Y5.588 E27.99211
G1 X12.264 Y5.192 E28.03771
G1 X13.411 Y4.926 E28.08330
G1 X14.577 Y4.792 E28.12872
G1 X15.033 Y4.779 E28.14638 F360.000
G1 X15.762 Y4.792 E28.17460
G1 X16.929 Y4.926 E28.22008
G1 X18.076 Y5.192 E28.26567
G1 X19.186 Y5.588 E28.31127
G1 X20.242 Y6.108 E28.35686
G1 X21.233 Y6.745 E28.40245
G1 X22.145 Y7.490 E28.44804
G1 X22.966 Y8.335 E28.49363
G1 X23.685 Y9.267 E28.53922
G1 X24.293 Y10.276 E28.58482
G1 X24.783 Y11.347 E28.63041
G1 X25.147 Y12.468 E28.67600
G1 X25.381 Y13.622 E28.72159
G1 X25.481 Y14.795 E28.76718
G1 X25.448 Y15.973 E28.81277
G1 X25.280 Y17.139 E28.85836
G1 X24.981 Y18.278 E28.90396
G1 X24.553 Y19.375 E28.94955
G1 X24.004 Y20.417 E28.99514
G1 X23.339 Y21.389 E29.04073
G1 X22.568 Y22.279 E29.08632
G1 X21.700 Y23.076 E29.13191
G1 X20.747 Y23.768 E29.17751
G1 X19.721 Y24.347 E29.22310
G1 X18.637 Y24.806 E29.26869
G1 X17.506 Y25.137 E29.31428
G1 X16.346 Y25.338 E29.35987
G1 X15.170 Y25.406 E29.40546
G1 X13.994 Y25.338 E29.45106
G1 X12.834 Y25.137 E29.49665
G1 X11.703 Y24.806 E29.54224
G1 X10.954 Y24.489 E29.57372
G1 X10.619 Y24.347 E29.58783
G1 X9.593 Y23.768 E29.63342
G1 X8.640 Y23.076 E29.67901
G1 X7.772 Y22.279 E29.72460
G1 X7.001 Y21.389 E29.77020
G1 X6.336 Y20.417 E29.81579
G1 X5.787 Y19.375 E29.86138
G1 X5.359 Y18.278 E29.90697
G1 X5.060 Y17.139 E29.95256
G1 X4.933 Y16.259 E29.98696
G1 X4.892 Y15.973 E29.99815
G1 X4.859 Y14.795 E30.04375
G1 X4.959 Y13.622 E30.08934
G1 X5.193 Y12.468 E30.13493
G1 X5.557 Y11.347 E30.18052
G1 X6.047 Y10.276 E30.22611
G1 X6.655 Y9.267 E30.27170
G1 X7.374 Y8.335 E30.31730
G1 X7.910 Y7.784 E30.34705
G1 X7.890 Y7.413 F7800.000
G1 X7.009 Y6.749 F7800.000
G1 X7.351 Y6.407 E30.36580 F360.000
G1 X8.302 Y5.637 E30.41314
G1 X9.328 Y4.971 E30.46048
G1 X10.417 Y4.416 E30.50783
G1 X11.559 Y3.977 E30.55517
G1 X12.741 Y3.661 E30.60251
G1 X13.949 Y3.469 E30.64986
G1 X15.170 Y3.405 E30.69720
G1 X16.110 Y3.455 E30.73363
G1 X16.391 Y3.469 E30.74454 F360.000
G1 X17.599 Y3.661 E30.79189
G1 X18.781 Y3.977 E30.83923
G1 X19.923 Y4.416 E30.88657
G1 X21.012 Y4.971 E30.93391
G1 X22.038 Y5.637 E30.98126
G1 X22.989 Y6.407 E31.02860
G1 X23.853 Y7.271 E31.07594
G1 X24.623 Y8.222 E31.12329
G1 X25.289 Y9.248 E31.17063
G1 X25.844 Y10.337 E31.21797
G1 X26.283 Y11.479 E31.26531
G1 X26.599 Y12.661 E31.31266
G1 X26.791 Y13.869 E31.36000
G1 X26.855 Y15.090 E31.40734
G1 X26.791 Y16.311 E31.45469
G1 X26.599 Y17.519 E31.50203
G1 X26.283 Y18.701 E31.54937
G1 X25.844 Y19.843 E31.59672
G1 X25.289 Y20.932 E31.64406
G1 X24.623 Y21.958 E31.69140
G1 X23.853 Y22.908 E31.73874
G1 X22.989 Y23.773 E31.78609
G1 X22.038 Y24.543 E31.83343
G1 X21.012 Y25.209 E31.88077
G1 X19.923 Y25.764 E31.92812
G1 X18.781 Y26.203 E31.97546
G1 X17.599 Y26.519 E32.02280
G1 X16.391 Y26.711 E32.07015
G1 X15.170 Y26.775 E32.11749
G1 X13.949 Y26.711 E32.16483
G1 X12.741 Y26.519 E32.21217
G1 X11.559 Y26.203 E32.25952
G1 X10.417 Y25.764 E32.30686
G1 X9.328 Y25.209 E32.35420
G1 X8.302 Y24.543 E32.40155
G1 X7.351 Y23.773 E32.44889
G1 X6.487 Y22.909 E32.49623
G1 X5.717 Y21.958 E32.54358
G1 X5.051 Y20.932 E32.59092
G1 X4.496 Y19.843 E32.63826
G1 X4.057 Y18.701 E32.68560
G1 X3.741 Y17.519 E32.73295
G1 X3.549 Y16.311 E32.78029
G1 X3.485 Y15.090 E32.82763
G1 X3.549 Y13.869 E32.87498
G1 X3.741 Y12.661 E32.92232
G1 X4.057 Y11.479 E32.96966
G1 X4.496 Y10.337 E33.01701
G1 X5.051 Y9.248 E33.06435
G1 X5.717 Y8.222 E33.11169
G1 X6.487 Y7.271 E33.15903
G1 X6.942 Y6.816 E33.18397
G1 X7.477 Y6.875 F7800.000
G1 X7.496 Y7.229 F7800.000
G1 X7.811 Y6.917 E33.22688 F3600.000
G1 X8.704 Y6.191 E33.33823
G1 X9.671 Y5.566 E33.44959
G1 X10.698 Y5.045 E33.56093
G1 X11.773 Y4.635 E33.67224
G1 X12.095 Y4.536 E33.70483
G1 X12.885 Y4.338 E33.78357
G1 X13.318 Y4.255 E33.82627
G1 X14.021 Y4.159 E33.89490
G1 X14.511 Y4.118 E33.94247
G1 X15.170 Y4.094 E34.00624
G1 X15.787 Y4.115 E34.06595
G1 X16.319 Y4.159 E34.11758
G1 X17.022 Y4.255 E34.18621
G1 X17.455 Y4.338 E34.22891
G1 X18.289 Y4.548 E34.31209
G1 X18.567 Y4.635 E34.34024
G1 X19.642 Y5.045 E34.45155
G1 X20.669 Y5.566 E34.56289
G1 X21.636 Y6.191 E34.67424
G1 X22.529 Y6.917 E34.78560
G1 X23.341 Y7.733 E34.89694
G1 X24.064 Y8.628 E35.00825
G1 X24.232 Y8.866 E35.03640
G1 X24.689 Y9.594 E35.11958
G1 X24.903 Y9.980 E35.16228
G1 X25.211 Y10.619 E35.23091
G1 X25.421 Y11.123 E35.28372
G1 X25.623 Y11.694 E35.34223
G1 X25.795 Y12.274 E35.40074
G1 X25.921 Y12.805 E35.45356
G1 X26.047 Y13.503 E35.52219
G1 X26.102 Y13.941 E35.56488
G1 X26.158 Y14.753 E35.64363
G1 X26.163 Y15.090 E35.67622
G1 X26.123 Y16.054 E35.76953
G1 X25.927 Y17.376 E35.89886
G1 X25.631 Y18.489 E36.01022
G1 X25.217 Y19.563 E36.12158
G1 X24.692 Y20.588 E36.23291
G1 X24.064 Y21.552 E36.34423
G1 X23.862 Y21.821 E36.37681
G1 X23.339 Y22.445 E36.45556
G1 X23.069 Y22.735 E36.49383
G1 X22.525 Y23.258 E36.56688
G1 X22.110 Y23.614 E36.61970
G1 X21.630 Y23.982 E36.67821
G1 X21.132 Y24.325 E36.73672
G1 X20.666 Y24.609 E36.78953
G1 X20.000 Y24.965 E36.86259
G1 X19.641 Y25.132 E36.90086
G1 X18.886 Y25.436 E36.97961
G1 X18.567 Y25.545 E37.01219
G1 X17.456 Y25.845 E37.12351
G1 X16.401 Y26.018 E37.22697
G1 X15.170 Y26.090 E37.34620
G1 X14.020 Y26.027 E37.45756
G1 X12.702 Y25.805 E37.58689
G1 X11.773 Y25.545 E37.68020
G1 X11.454 Y25.436 E37.71279
G1 X10.699 Y25.132 E37.79153
G1 X10.299 Y24.944 E37.83423
G1 X9.674 Y24.609 E37.90286
G1 X9.246 Y24.349 E37.95125
G1 X8.710 Y23.982 E38.01419
G1 X8.230 Y23.614 E38.07270
G1 X7.815 Y23.258 E38.12551
G1 X7.303 Y22.767 E38.19414
G1 X7.001 Y22.445 E38.23684
G1 X6.450 Y21.785 E38.32002
G1 X6.276 Y21.552 E38.34817
G1 X5.648 Y20.588 E38.45948
G1 X5.123 Y19.563 E38.57082
G1 X4.709 Y18.489 E38.68218
G1 X4.413 Y17.376 E38.79353
G1 X4.235 Y16.239 E38.90487
G1 X4.177 Y15.090 E39.01618
